svgs/thin/square-terminal.svg

<svg xmlns="http://www.w3.org/2000/svg" viewBox="0 0 448 512"><!--! Font Awesome Pro 6.0.0-alpha3 by @fontawesome - https://fontawesome.com License - https://fontawesome.com/license (Commercial License) --><path d="M384 32H64C28.65 32 0 60.66 0 96v320c0 35.34 28.65 64 64 64h320c35.35 0 64-28.66 64-64V96C448 60.66 419.3 32 384 32zM432 416c0 26.47-21.53 48-48 48H64c-26.47 0-48-21.53-48-48V96c0-26.47 21.53-48 48-48h320c26.47 0 48 21.53 48 48V416zM221.4 250.1l-112-104C106.2 143.2 101.2 143.3 98.14 146.6C95.13 149.8 95.31 154.8 98.56 157.9L204.3 256l-105.7 98.13c-3.25 3.031-3.438 8.094-.4219 11.31C99.72 367.2 101.9 368 104 368c1.953 0 3.906-.7187 5.438-2.125l112-104C223.1 260.3 224 258.2 224 256S223.1 251.7 221.4 250.1zM376 368h-176C195.6 368 192 371.6 192 376S195.6 384 200 384h176c4.422 0 8-3.594 8-8S380.4 368 376 368z"/></svg>

<svg xmlns="http://www.w3.org/2000/svg" viewBox="0 0 448 512"><!--! Font Awesome Pro 6.4.2 by @fontawesome - https://fontawesome.com License - https://fontawesome.com/license (Commercial License) Copyright 2023 Fonticons, Inc. --><path d="M384 48c26.5 0 48 21.5 48 48V416c0 26.5-21.5 48-48 48H64c-26.5 0-48-21.5-48-48V96c0-26.5 21.5-48 48-48H384zM64 32C28.7 32 0 60.7 0 96V416c0 35.3 28.7 64 64 64H384c35.3 0 64-28.7 64-64V96c0-35.3-28.7-64-64-64H64zM97.9 154.8c-2.9 3.4-2.5 8.4 .9 11.3L203.7 256 98.8 345.9c-3.4 2.9-3.7 7.9-.9 11.3s7.9 3.7 11.3 .9l112-96c1.8-1.5 2.8-3.7 2.8-6.1s-1-4.6-2.8-6.1l-112-96c-3.4-2.9-8.4-2.5-11.3 .9zM200 368c-4.4 0-8 3.6-8 8s3.6 8 8 8H376c4.4 0 8-3.6 8-8s-3.6-8-8-8H200z"/></svg>
